!!!COM: Henri Duparc
!!!CNT: Francais
!!!TXO: Francais
!!!OTL: Phidyle/
!!!LYR: Charles~Marie~Rene/ Leconte de Lisle
!!!ENC: Jacob Pegg
!!!YOR: Henri Duparc: Complete Songs for Voice and Piano
!!!YOR: New York: Dover publications, inc., 1995 
!!!YOR: ISBN 0-486-28466-2
!!!ODT: 1882/
!!NB: Vocal melody and text only encoded.
!!NB: First instance of melodic material only encoded.
**kern	**silbe
*clef G2	*
*k[b-e-a-d-]	*
*M4/4	*
*MM[lento]	*
!! created: 6/25/03 12:39
!! last edited: 7/21/03 22:20
=2	=2
{8a-	{L'her-
8a-	-be est
[4a-	mol-
(12a-]	-le
12b-	au
12cc-)	som-
[4a-	-meil
=3	=3
8a-]}	|}
8r	.
{8a-	{sous
8a-	les
(12a-	frais
12g-	peu-
12f-)	-pli-
[4a-	-ers,
=4	=4
8a-]}	|}
8r	.
{4a-	{Aux
4b-	pen-
8cc	-tes
8ddn	des
=5	=5
4cc	sour-
8b-	-ces
8a-	mous-
[2b-	-su-
=6	=6
8b-]}	-es,}
8r	.
{4b-	{Qui
8cc	dans
8cc	les
8b-	pre/s
8a-	en
=7	=7
4a-}	fleur}
8r	.
{8a-	{ger-
[2cc	-mant
=8	=8
8cc]	|
8cc	par
8b-	mille
8a-	is-
4a-	-su-
8a-}	-es,}
{8a-	{Se
=9	=9
8a-	per-
8a-	-dent
8a-	sous
8a-	les
4.a-	noirs
8f	hal-
=10	=10
[2a-	-liers.
8a-]}	|}
8r	.
8r;	.
{8a-	{Re-
=11	=11
*k[b-]	*
1cc	-po-
=12	=12
[2a	-se,
4a]}	|}
4r	.
=13	=13
4r	.
{2b-	{o^
8a	Phi-
8g	-dy-
=14	=14
2f}	-le/.}
2r	.
=15	=15
1r	.
=16	=16
8r	.
{8g	{Mi-
4.b-	-di
8b-	sur
8a	les
8g	feuil-
=17	=17
*M2/4	*
4b-	-la-
8cc-	-ges
8dd-	Ray-
=18	=18
*M4/4	*
2.b-}	-onne}
{8g	{et
8b-	t'in-
=19	=19
2b-	-vite
4.a	au
8g	som-
=20	=20
2f}	-meil.}
2r	.
!!21-22 rest	
=23	=23
*k[f#c#g#]	*
*MM[larghetto]	*
2r	.
4r	.
{8g#	{Par
8g#	le
=24	=24
4b	tre\fle
8cc#	et
8dd	le
[4cc#	thym,
8cc#]}	|}
8r	.
=25	=25
{2b	{seu-
8b}	-les,}
8r	.
{4b	{en
=26	=26
*k[b-e-]	*
8.dd	plein
16b-	so-
[2b-	-leil,
8b-]}	|}
8r	.
=27	=27
{8ee-	{chan-
8ee-	-tent
8dd	les
8cc	a-
4dd	-beil-
8cc	-es
8b-	vo-
=28	=28
*k[f#]	*
2a	-la-
4a}	-ges;}
4r	.
=29	=29
4r	.
{4b	{Un
4.dd	chaud
8b	par-
=30	=30
2.cc#	-fum
4cc#	cir-
=31	=31
4ee	-cule
8dd	au
8b	de/-
(6g	-tour
6b	des
6dd)	sen-
=32	=32
[2cc#	-tiers,
8cc#]}	|}
8r	.
{4cc#	{La
=33	=33
8dd#	rou-
8cc#	-ge
8b	fleur
8a#	des
4.a#	ble/s
8b-	s'in-
=34	=34
*k[b-e-a-]	*
4cc	-cli-
4b-}	-ne,}
8r	.
{8b-	{Et
8cc	les
8dd	oi-
=35	=35
8cc	-seaux,
8b-	ra-
8cc	-sant
8b-	de
8g	l'ai-
8e-	-le
8g	la
8b-	col-
=36	=36
4an	-li-
8an}	-ne,}
8r	.
4r	.
{8b-	{cher-
8dd	-chent
=37	=37
4ee-	l'om-
4b-	-bre
4g	des
8f	e/-
8f	-glan-
=38	=38
2e-}	-tiers.}
2r	.
=39	=39
1r	.
=40	=40
2r	.
4r	.
8r	.
{8ee-	{Re-
=41	=41
*k[b-e-a-d-]	*
*MM[largo]	*
1ee-	-po-
=42	=42
[2cc	-se,
4cc]}	|}
4r	.
=43	=43
4r	.
{2dd-	{o^
8cc	Phi-
8b-	-dy-
=44	=44
2a-}	-le/,}
2r	.
=45	=45
1r	.
=46	=46
4r	.
8r	.
{8b-	{Re-
[2dd-	-po-
=47	=47
2.dd-]	|
4b-}	-se,}
=48	=48
4r	.
{2dd-	{o^
8ddn	Phi-
8ddn	-dy-
=49	=49
4ee-}	-le/,}
4r	.
2r	.
=50	=50
2r	.
4r	.
8r	.
{8ee-	{Re-
=51	=51
(2ff	-po-
2ff-)	|
=52	=52
4ee-}	-se,}
4r	.
2r	.
=53	=53
2r	.
{4ee-	{o^
8ee-	Phi-
8ee-	-dy-
=54	=54
2ee-}	-le/!}
2r	.
=55	=55
1r	.
=56	=56
4r	.
{2ee-	{Mais,
4ee-	quand
=57	=57
2ff-	l'Astre,
4cc-	in-
4dd-	-cli-
=58	=58
4ee-	-ne/
8ffn	sur
8gg	sa
4aa-	courbe
8gg-	e/-
8ff-	-cla-
=59	=59
2ee-	-tan-
8cc}	-te,}
8r	.
{4a-	{Ver-
=60	=60
4b-	-ra
8cc	ses
8ddn	ar-
4cc	-deurs
8b-	s'a-
8a-	-pai-
=61	=61
[2b-	-ser,
8b-]}	|}
8r	.
8r	.
{8b-	{Que
=62	=62
8dd-	ton
8dd-	plus
8dd-	beau
8ee-	sou-
4.ff	-rire
8cc	et
=63	=63
8cc	ton
8ff	meil-
2ff	-leur
4ff	bai-
=64	=64
2gg-}	-ser}
8r	.
{8ee-	{Me
8ff-	re/-
8gg-	-com-
=65	=65
4aa-	-pen-
4ee-}	-sent,}
8r	.
{8ee-	{Me
8ee-	re/-
8ee-	-com-
=66	=66
4ff-	-pen-
4cc-}	-sent}
{4.a-	{de
8b-	l'at-
=67	=67
(2ccn	-ten-
2b-)	|
=68	=68
4a-}	-te!}
4r	.
2r	.
*-	*-
